images/icon-web.svg

<svg xmlns="http://www.w3.org/2000/svg" width="32" height="32"><path fill="#2C2A29" d="M15.912.175C7.125.175 0 7.3 0 16.088S7.125 32 15.912 32s15.912-7.125 15.912-15.912S24.7.175 15.912.175zm9.004 21.217a25.31 25.31 0 0 0 .522-4.243h4.225a13.644 13.644 0 0 1-1.017 4.243h-3.73zM6.909 10.783a25.31 25.31 0 0 0-.522 4.243H2.162c.11-1.465.452-2.888 1.017-4.243h3.73zm15.834 0c.318 1.358.51 2.779.573 4.243h-6.343v-4.243h5.77zm-5.77-2.121v-6.21a4.83 4.83 0 0 1 1.433.709c.882.622 1.724 1.579 2.438 2.768.493.822.92 1.738 1.276 2.735h-5.147v-.002zm-5.992-2.735c.714-1.189 1.556-2.146 2.438-2.768a4.83 4.83 0 0 1 1.433-.709v6.21H9.704a15.35 15.35 0 0 1 1.276-2.735v.002zm3.871 4.856v4.243H8.509c.063-1.464.255-2.885.573-4.243h5.77zM3.179 21.392a13.679 13.679 0 0 1-1.017-4.243h4.225c.058 1.479.238 2.902.522 4.243h-3.73zm5.33-4.244h6.343v4.243h-5.77a22.762 22.762 0 0 1-.573-4.243zm6.343 6.365v6.21a4.83 4.83 0 0 1-1.433-.709c-.882-.622-1.724-1.579-2.438-2.768a15.35 15.35 0 0 1-1.276-2.735h5.147v.002zm5.992 2.735c-.714 1.189-1.556 2.146-2.438 2.768-.47.331-.949.568-1.433.709v-6.21h5.147a15.383 15.383 0 0 1-1.276 2.735v-.002zm-3.871-4.856v-4.243h6.343a22.941 22.941 0 0 1-.573 4.243h-5.77zm8.466-6.365a25.297 25.297 0 0 0-.522-4.243h3.73a13.65 13.65 0 0 1 1.017 4.243h-4.225zm2.098-6.365h-3.179c-.617-1.948-1.471-3.657-2.497-5.02a13.786 13.786 0 0 1 3.803 2.694c.711.712 1.337 1.49 1.873 2.326zM6.161 6.337a13.744 13.744 0 0 1 3.803-2.694c-1.026 1.363-1.879 3.072-2.497 5.02H4.288a13.698 13.698 0 0 1 1.873-2.326zM4.288 23.513h3.179c.618 1.948 1.471 3.657 2.497 5.02a13.877 13.877 0 0 1-5.676-5.02zm21.375 2.326a13.744 13.744 0 0 1-3.803 2.694c1.026-1.363 1.879-3.072 2.497-5.02h3.179a13.728 13.728 0 0 1-1.873 2.326z"/></svg>

<?xml version="1.0" encoding="utf-8"?>
<!-- Generator: Adobe Illustrator 17.0.0, SVG Export Plug-In . SVG Version: 6.00 Build 0)  -->
<!DOCTYPE svg PUBLIC "-//W3C//DTD SVG 1.1//EN" "http://www.w3.org/Graphics/SVG/1.1/DTD/svg11.dtd">
<svg version="1.1" id="Layer_1" xmlns="http://www.w3.org/2000/svg" xmlns:xlink="http://www.w3.org/1999/xlink" x="0px" y="0px"
	 width="32px" height="32px" viewBox="0 0 32 32" enable-background="new 0 0 32 32" xml:space="preserve">
<path fill="#2C2A29" d="M15.912,0.175C7.125,0.175,0,7.3,0,16.088S7.125,32,15.912,32s15.912-7.125,15.912-15.912
	S24.7,0.175,15.912,0.175z M24.916,21.392c0.284-1.341,0.464-2.765,0.522-4.243h4.225c-0.11,1.465-0.452,2.888-1.017,4.243H24.916z
	 M6.909,10.783c-0.284,1.341-0.464,2.765-0.522,4.243H2.162c0.11-1.465,0.452-2.888,1.017-4.243
	C3.179,10.783,6.909,10.783,6.909,10.783z M22.743,10.783c0.318,1.358,0.51,2.779,0.573,4.243h-6.343v-4.243H22.743z M16.973,8.662
	v-6.21c0.484,0.141,0.963,0.377,1.433,0.709c0.882,0.622,1.724,1.579,2.438,2.768c0.493,0.822,0.92,1.738,1.276,2.735h-5.147
	L16.973,8.662z M10.981,5.927c0.714-1.189,1.556-2.146,2.438-2.768c0.47-0.332,0.949-0.568,1.433-0.709v6.21H9.704
	c0.356-0.997,0.783-1.913,1.276-2.735V5.927z M14.852,10.783v4.243H8.509c0.063-1.464,0.255-2.885,0.573-4.243H14.852z
	 M3.179,21.392c-0.565-1.356-0.906-2.778-1.017-4.243h4.225c0.058,1.479,0.238,2.902,0.522,4.243H3.179z M8.509,17.148h6.343v4.243
	h-5.77C8.763,20.034,8.571,18.612,8.509,17.148z M14.852,23.513v6.21c-0.484-0.141-0.963-0.377-1.433-0.709
	c-0.882-0.622-1.724-1.579-2.438-2.768c-0.493-0.822-0.92-1.738-1.276-2.735h5.147V23.513z M20.844,26.248
	c-0.714,1.189-1.556,2.146-2.438,2.768c-0.47,0.331-0.949,0.568-1.433,0.709v-6.21h5.147c-0.356,0.997-0.783,1.912-1.276,2.735
	L20.844,26.248z M16.973,21.392v-4.243h6.343c-0.063,1.464-0.255,2.885-0.573,4.243C22.743,21.392,16.973,21.392,16.973,21.392z
	 M25.439,15.027c-0.058-1.479-0.238-2.902-0.522-4.243h3.73c0.565,1.356,0.907,2.778,1.017,4.243H25.439z M27.537,8.662h-3.179
	c-0.617-1.948-1.471-3.657-2.497-5.02c1.41,0.675,2.687,1.579,3.803,2.694C26.375,7.048,27.001,7.826,27.537,8.662z M6.161,6.337
	c1.116-1.116,2.393-2.02,3.803-2.694c-1.026,1.363-1.879,3.072-2.497,5.02H4.288C4.823,7.826,5.448,7.048,6.161,6.337z
	 M4.288,23.513h3.179c0.618,1.948,1.471,3.657,2.497,5.02c-1.41-0.675-2.687-1.579-3.803-2.694
	C5.449,25.127,4.824,24.349,4.288,23.513z M25.663,25.839c-1.116,1.116-2.393,2.02-3.803,2.694c1.026-1.363,1.879-3.072,2.497-5.02
	h3.179C27.002,24.349,26.376,25.127,25.663,25.839z"/>
</svg>
